build/Karasa-Jaga/scalable/actions/process-stop-symbolic.svg

<svg height="16" width="16" xmlns="http://www.w3.org/2000/svg"><path d="m10.877404.92205936-5.8464729.03985512-4.10887174 4.16068072.03985512 5.8464738 4.16068092 4.108872 5.8464736-.039855 4.108872-4.160681-.039855-5.8464741zm-5.3881603 3.33173264 2.5107554 2.3553281 2.5107549-2.3553281 1.386894 1.4785563-2.4151076 2.2676508 2.4151076 2.2676509-1.386894 1.478556-2.5107549-2.355328-2.5107554 2.355328-1.3868936-1.478556 2.4151074-2.2676509-2.4151074-2.2676508z" fill="#d40000"/></svg>

<?xml version="1.0" encoding="UTF-8" standalone="no"?>
<!-- Created with Inkscape (http://www.inkscape.org/) -->

<svg
   xmlns:dc="http://purl.org/dc/elements/1.1/"
   xmlns:cc="http://creativecommons.org/ns#"
   xmlns:rdf="http://www.w3.org/1999/02/22-rdf-syntax-ns#"
   xmlns:svg="http://www.w3.org/2000/svg"
   xmlns="http://www.w3.org/2000/svg"
   xmlns:xlink="http://www.w3.org/1999/xlink"
   xmlns:sodipodi="http://sodipodi.sourceforge.net/DTD/sodipodi-0.dtd"
   xmlns:inkscape="http://www.inkscape.org/namespaces/inkscape"
   id="svg7384"
   height="16"
   width="16"
   version="1.1"
   inkscape:version="0.48.3.1 r9886"
   sodipodi:docname="process-stop-symbolic.svg">
  <defs
     id="defs9">
    <linearGradient
       y2="14.000651"
       x2="6.5625"
       y1="2"
       x1="6.5625"
       gradientUnits="userSpaceOnUse"
       id="linearGradient3787"
       xlink:href="#SpecificGradient"
       inkscape:collect="always" />
    <linearGradient
       y2="14.000651"
       x2="6.5625"
       y1="2"
       x1="6.5625"
       gradientUnits="userSpaceOnUse"
       id="linearGradient3783"
       xlink:href="#SpecificGradient"
       inkscape:collect="always" />
    <clipPath
       id="clipPath3635"
       clipPathUnits="userSpaceOnUse">
      <path
         id="path3637"
         d="m -20,0 0,16 16,0 0,-16 -16,0 z m 8,2 c 3.312,0 6,2.6880001 6,6 0,3.312 -2.688,6 -6,6 -3.312,0 -6,-2.688 -6,-6 0,-3.3119999 2.688,-6 6,-6 z m 0,2.15625 c -0.57648,0 -1.133672,0.1167299 -1.625,0.34375 L -8.5,9.625 C -8.273784,9.1343862 -8.15625,8.5753957 -8.15625,8 -8.15625,5.8708574 -9.870857,4.1562499 -12,4.15625 z m -3.46875,2.125 c -0.255374,0.5152866 -0.375,1.1050247 -0.375,1.71875 0,2.129143 1.714607,3.84375 3.84375,3.84375 0.61479,0 1.202796,-0.118796 1.71875,-0.375 l -5.1875,-5.1875 z"
         style="fill:#ff00ff;fill-opacity:1;stroke:none;display:inline" />
    </clipPath>
    <linearGradient
       gradientTransform="translate(-20,0)"
       y2="14.000651"
       x2="6.5625"
       y1="2"
       x1="6.5625"
       gradientUnits="userSpaceOnUse"
       id="linearGradient3628"
       xlink:href="#SpecificGradient"
       inkscape:collect="always" />
    <inkscape:perspective
       sodipodi:type="inkscape:persp3d"
       inkscape:vp_x="0 : 0.5 : 1"
       inkscape:vp_y="0 : 1000 : 0"
       inkscape:vp_z="1 : 0.5 : 1"
       inkscape:persp3d-origin="0.5 : 0.33333333 : 1"
       id="perspective3648" />
    <linearGradient
       gradientUnits="userSpaceOnUse"
       y2="14.000651"
       x2="6.5625"
       y1="2"
       x1="6.5625"
       id="SpecificGradient">
      <stop
         id="stop3292"
         offset="0"
         style="stop-color:#ad0707;stop-opacity:1;" />
      <stop
         id="stop3294"
         offset="1"
         style="stop-color:#f75535;stop-opacity:1;" />
    </linearGradient>
    <inkscape:perspective
       id="perspective19"
       inkscape:persp3d-origin="8 : 5.3333333 : 1"
       inkscape:vp_z="16 : 8 : 1"
       inkscape:vp_y="0 : 1000 : 0"
       inkscape:vp_x="0 : 8 : 1"
       sodipodi:type="inkscape:persp3d" />
  </defs>
  <sodipodi:namedview
     pagecolor="#ffffff"
     bordercolor="#666666"
     borderopacity="1"
     objecttolerance="10"
     gridtolerance="10"
     guidetolerance="10"
     inkscape:pageopacity="0"
     inkscape:pageshadow="2"
     inkscape:window-width="1366"
     inkscape:window-height="696"
     id="namedview7"
     showgrid="false"
     inkscape:zoom="7.375"
     inkscape:cx="5.6204265"
     inkscape:cy="-4.2319958"
     inkscape:window-x="0"
     inkscape:window-y="0"
     inkscape:window-maximized="1"
     inkscape:current-layer="svg7384" />
  <title
     id="title9167">Gnome Symbolic Icon Theme</title>
  <metadata
     id="metadata90">
    <rdf:RDF>
      <cc:Work
         rdf:about="">
        <dc:format>image/svg+xml</dc:format>
        <dc:type
           rdf:resource="http://purl.org/dc/dcmitype/StillImage" />
        <dc:title>Gnome Symbolic Icon Theme</dc:title>
      </cc:Work>
    </rdf:RDF>
  </metadata>
  <path
     style="fill:#d40000;fill-opacity:1;stroke:none"
     d="M 10.877404,0.92205936 5.0309311,0.96191448 0.92205936,5.1225952 0.96191448,10.969069 5.1225954,15.077941 10.969069,15.038086 15.077941,10.877405 15.038086,5.0309309 10.877404,0.92205936 z M 5.4892437,4.253792 7.9999991,6.6091201 10.510754,4.253792 11.897648,5.7323483 9.4825404,7.9999991 11.897648,10.26765 10.510754,11.746206 7.9999991,9.390878 5.4892437,11.746206 4.1023501,10.26765 6.5174575,7.9999991 4.1023501,5.7323483 5.4892437,4.253792 z"
     id="path2998"
     inkscape:connector-curvature="0" />
  <g
     id="layer1"
     inkscape:label="Calque 1"
     transform="translate(-32.544995,12.793944)" />
</svg>
